X: 5
T: Possum up a Gum Stump [3]
R: reel
Z: 2008 John Chambers <jc:trillian.mit.edu>
M: C|
L: 1/8
K: G
B,A, \
| "G"G,2G,A, B,A,G,B, | "C"CB,CD EFGE |  "G"D2DE DCB,G, | "D"A,3B, A,2B,A, |
| "G"G,2G,A, B,A,G,B, | "C"CB,CD EFGE | "D7"DEFG AcBA   | "G"G2GF  G2 :|
|: (3DEF \
| "G"G2BG AGB2   | "C"G2cG  BGc2 |  "G"G2BG AGB2 | "D7"F4 [dD]3F |
| "G"G2D2 B,2G,2 | "C"CB,CD EFGE | "D7"DEFG AcBA |  "G"G2GF G2 :|

%%sep 2 1 500

